web/packages/design/src/ResourceIcon/assets/microsoftoutlook.svg

<svg width="72" height="72" viewBox="0 0 72 72" fill="none" xmlns="http://www.w3.org/2000/svg">
<g clip-path="url(#clip0_8803_4756)">
<path d="M72.0001 37.6725C72.004 37.1096 71.7131 36.5856 71.2332 36.2912H71.2248L71.1947 36.2744L46.2458 21.5061C46.1381 21.4333 46.0263 21.3667 45.9109 21.3068C44.9477 20.8098 43.8034 20.8098 42.8401 21.3068C42.7247 21.3668 42.6129 21.4333 42.5052 21.5061L17.5564 36.2744L17.5263 36.2912C16.7638 36.7653 16.53 37.7679 17.0042 38.5304C17.1439 38.7551 17.3363 38.9423 17.5648 39.0757L42.5136 53.8441C42.6217 53.9162 42.7335 53.9828 42.8485 54.0434C43.8118 54.5403 44.9561 54.5403 45.9194 54.0434C46.0344 53.9828 46.1462 53.9163 46.2543 53.8441L71.2031 39.0757C71.7015 38.7851 72.0058 38.2495 72.0001 37.6725Z" fill="#0A2767"/>
<path d="M20.4643 27.8119H36.8368V42.8197H20.4643V27.8119ZM68.6507 12.5563V5.69114C68.6901 3.97471 67.3314 2.5509 65.615 2.50977H23.1284C21.4119 2.5509 20.0533 3.97471 20.0926 5.69114V12.5563L45.2089 19.2539L68.6507 12.5563Z" fill="#0364B8"/>
<path d="M20.0928 12.5562H36.8369V27.6259H20.0928V12.5562Z" fill="#0078D4"/>
<path d="M53.5811 12.5562H36.8369V27.6259L53.5811 42.6957H68.6509V27.6259L53.5811 12.5562Z" fill="#28A8EA"/>
<path d="M36.8369 27.626H53.5811V42.6957H36.8369V27.626Z" fill="#0078D4"/>
<path d="M36.8369 42.6958H53.5811V57.7656H36.8369V42.6958Z" fill="#0364B8"/>
<path d="M20.4648 42.8198H36.8373V56.463H20.4648V42.8198Z" fill="#14447D"/>
<path d="M53.5811 42.6958H68.6508V57.7656H53.5811V42.6958Z" fill="#0078D4"/>
<path d="M71.233 38.9834L71.2012 39.0002L46.2524 53.0318C46.1436 53.0988 46.0331 53.1624 45.9175 53.2193C45.4937 53.4211 45.0335 53.535 44.5646 53.5542L43.2016 52.7572C43.0864 52.6994 42.9746 52.6351 42.8667 52.5646L17.583 38.1345H17.5713L16.7441 37.6724V66.0772C16.757 67.9723 18.3033 69.4983 20.1984 69.4863H68.5992C68.6276 69.4863 68.6527 69.4729 68.6829 69.4729C69.0832 69.4473 69.4778 69.365 69.8549 69.2284C70.0179 69.1594 70.1753 69.0776 70.3255 68.984C70.4376 68.9204 70.6302 68.7814 70.6302 68.7814C71.4879 68.1467 71.9957 67.1443 71.9999 66.0772V37.6724C71.9993 38.2157 71.7063 38.7166 71.233 38.9834Z" fill="url(#paint0_linear_8803_4756)"/>
<path opacity="0.5" d="M70.66 37.5602V39.3016L44.5726 57.2631L17.5642 38.1463C17.5642 38.137 17.5567 38.1295 17.5475 38.1295L15.0693 36.6393V35.3835L16.0907 35.3667L18.2507 36.6058L18.3009 36.6225L18.4851 36.7397C18.4851 36.7397 43.8693 51.2235 43.9363 51.2569L44.9074 51.8262C44.9911 51.7927 45.0748 51.7592 45.1753 51.7257C45.2256 51.6922 70.3753 37.5434 70.3753 37.5434L70.66 37.5602Z" fill="#0A2767"/>
<path d="M71.233 38.9834L71.2012 39.0018L46.2524 53.0334C46.1435 53.1004 46.033 53.164 45.9175 53.221C44.9485 53.6943 43.8155 53.6943 42.8466 53.221C42.7318 53.1641 42.6201 53.1016 42.5117 53.0334L17.5629 39.0018L17.5328 38.9834C17.0511 38.7223 16.7491 38.2203 16.7441 37.6724V66.0772C16.7561 67.972 18.3019 69.4983 20.1966 69.4863C20.1966 69.4863 20.1967 69.4863 20.1968 69.4863H68.5472C70.442 69.4984 71.9878 67.9721 71.9999 66.0773C71.9999 66.0773 71.9999 66.0773 71.9999 66.0772V37.6724C71.9993 38.2157 71.7063 38.7166 71.233 38.9834Z" fill="#1490DF"/>
<path opacity="0.1" d="M46.6162 52.8257L46.2428 53.035C46.1346 53.1039 46.0228 53.1671 45.9079 53.2242C45.4965 53.4261 45.0492 53.5445 44.5918 53.5725L54.0841 64.7978L70.6424 68.7879C71.0961 68.4452 71.457 67.9945 71.6923 67.4768L46.6162 52.8257Z" fill="black"/>
<path opacity="0.05" d="M48.3073 51.875L46.2428 53.0354C46.1346 53.1043 46.0228 53.1674 45.9079 53.2246C45.4965 53.4265 45.0492 53.5449 44.5918 53.5728L49.039 65.8346L70.6474 68.7832C71.4987 68.1441 71.9998 67.1419 72.0003 66.0774V65.7107L48.3073 51.875Z" fill="black"/>
<path d="M20.2437 69.4863H68.5422C69.2854 69.4901 70.0103 69.2553 70.6101 68.8165L43.1999 52.7606C43.0847 52.7028 42.9729 52.6385 42.865 52.568L17.5813 38.1378H17.5696L16.7441 37.6724V65.9801C16.7423 67.9147 18.309 69.4844 20.2437 69.4863V69.4863Z" fill="#28A8EA"/>
<path opacity="0.1" d="M40.186 18.9745V54.6898C40.183 55.942 39.4216 57.0676 38.2604 57.5363C37.9007 57.6909 37.5133 57.7707 37.1218 57.7708H16.7441V17.5797H20.093V15.9053H37.1218C38.8134 15.9117 40.1823 17.2829 40.186 18.9745Z" fill="black"/>
<path opacity="0.2" d="M38.5116 20.6489V56.3642C38.5158 56.7687 38.43 57.1691 38.2604 57.5363C37.7954 58.6825 36.6843 59.4344 35.4474 59.4401H16.7441V17.5797H35.4474C35.9332 17.5749 36.412 17.696 36.8371 17.9314C37.8636 18.4485 38.5112 19.4996 38.5116 20.6489Z" fill="black"/>
<path opacity="0.2" d="M38.5116 20.6489V53.0154C38.5034 54.7062 37.1382 56.0767 35.4474 56.0913H16.7441V17.5797H35.4474C35.9332 17.5749 36.412 17.696 36.8371 17.9314C37.8636 18.4485 38.5112 19.4996 38.5116 20.6489Z" fill="black"/>
<path opacity="0.2" d="M36.8371 20.6488V53.0153C36.8353 54.7087 35.4664 56.0829 33.773 56.0912H16.7441V17.5796H33.7729C35.4662 17.5805 36.8381 18.9539 36.8371 20.6471C36.8371 20.6477 36.8371 20.6482 36.8371 20.6488Z" fill="black"/>
<path d="M3.0692 17.5796H33.768C35.4631 17.5796 36.8372 18.9537 36.8372 20.6488V51.3476C36.8372 53.0426 35.4631 54.4168 33.768 54.4168H3.0692C1.37411 54.4168 0 53.0426 0 51.3476V20.6488C0 18.9537 1.37415 17.5796 3.0692 17.5796Z" fill="url(#paint1_linear_8803_4756)"/>
<path d="M9.59289 30.4525C10.3493 28.8408 11.5703 27.4921 13.0991 26.5796C14.7922 25.6103 16.7199 25.1271 18.6699 25.1831C20.4773 25.1439 22.2608 25.6021 23.8255 26.5075C25.2966 27.3849 26.4815 28.6703 27.2362 30.208C28.0582 31.9023 28.4678 33.767 28.4318 35.6499C28.4716 37.6176 28.0501 39.5673 27.2011 41.3429C26.4284 42.9355 25.2059 44.2668 23.6848 45.1722C22.0598 46.1055 20.2101 46.5757 18.3367 46.5319C16.4907 46.5764 14.668 46.1131 13.0673 45.1923C11.5834 44.3139 10.3837 43.0269 9.61133 41.4852C8.78449 39.8153 8.36997 37.9716 8.40241 36.1086C8.36796 34.1576 8.77494 32.2241 9.59289 30.4525ZM13.3302 39.5445C13.7335 40.5634 14.4175 41.4471 15.3026 42.093C16.2043 42.7232 17.2839 43.0483 18.3836 43.0206C19.5547 43.067 20.709 42.7308 21.6721 42.0629C22.5461 41.419 23.2121 40.5329 23.5876 39.5144C24.0075 38.3769 24.2147 37.172 24.1988 35.9596C24.2118 34.7357 24.017 33.5184 23.6228 32.3596C23.2746 31.3134 22.6301 30.3909 21.7676 29.704C20.8286 29.0045 19.6773 28.6497 18.5075 28.6994C17.384 28.6703 16.2802 28.9979 15.3545 29.6354C14.4544 30.284 13.7574 31.1755 13.3452 32.2056C12.4308 34.5668 12.4261 37.1834 13.3318 39.5479L13.3302 39.5445Z" fill="white"/>
<path d="M53.5811 12.5562H68.6508V27.6259H53.5811V12.5562Z" fill="#50D9FF"/>
</g>
<defs>
<linearGradient id="paint0_linear_8803_4756" x1="44.372" y1="37.6724" x2="44.372" y2="69.4864" gradientUnits="userSpaceOnUse">
<stop stop-color="#35B8F1"/>
<stop offset="1" stop-color="#28A8EA"/>
</linearGradient>
<linearGradient id="paint1_linear_8803_4756" x1="6.39936" y1="15.1814" x2="30.4378" y2="56.815" gradientUnits="userSpaceOnUse">
<stop stop-color="#1784D9"/>
<stop offset="0.5" stop-color="#107AD5"/>
<stop offset="1" stop-color="#0A63C9"/>
</linearGradient>
<clipPath id="clip0_8803_4756">
<rect width="72" height="72" fill="white"/>
</clipPath>
</defs>
</svg>

<svg xmlns="http://www.w3.org/2000/svg" width="72" height="72" fill="none" viewBox="0 0 72 72"><g clip-path="url(#clip0_8803_4756)"><path fill="#0a2767" d="M72 37.673a1.61 1.61 0 0 0-.767-1.382h-.008l-.03-.017-24.95-14.768a3.35 3.35 0 0 0-3.74 0L17.556 36.274l-.03.017a1.626 1.626 0 0 0 .039 2.785l24.949 14.768q.162.108.334.2a3.35 3.35 0 0 0 3.406-.2l24.95-14.768c.498-.29.802-.827.796-1.404"/><path fill="#0364b8" d="M20.464 27.812h16.373V42.82H20.464zm48.187-15.256V5.691a3.11 3.11 0 0 0-3.036-3.181H23.128a3.11 3.11 0 0 0-3.035 3.181v6.865l25.116 6.698z"/><path fill="#0078d4" d="M20.093 12.556h16.744v15.07H20.093z"/><path fill="#28a8ea" d="M53.581 12.556H36.837v15.07l16.744 15.07h15.07v-15.07z"/><path fill="#0078d4" d="M36.837 27.626H53.58v15.07H36.837z"/><path fill="#0364b8" d="M36.837 42.696H53.58v15.07H36.837z"/><path fill="#14447d" d="M20.465 42.82h16.372v13.643H20.465z"/><path fill="#0078d4" d="M53.581 42.696h15.07v15.07H53.58z"/><path fill="url(#paint0_linear_8803_4756)" d="m71.233 38.983-.032.017-24.949 14.032q-.161.101-.335.187a3.5 3.5 0 0 1-1.352.335l-1.363-.797a3 3 0 0 1-.335-.192l-25.284-14.43h-.012l-.827-.463v28.405a3.433 3.433 0 0 0 3.454 3.41H68.6c.029 0 .054-.014.084-.014.4-.026.795-.108 1.172-.245q.245-.103.47-.244c.113-.064.305-.203.305-.203A3.38 3.38 0 0 0 72 66.077V37.672c0 .544-.294 1.045-.767 1.311"/><path fill="#0a2767" d="M70.66 37.56v1.742L44.573 57.263 17.564 38.146a.02.02 0 0 0-.017-.017l-2.478-1.49v-1.256l1.022-.016 2.16 1.239.05.017.184.117S43.87 51.224 43.936 51.257l.971.57c.084-.034.168-.068.268-.101.05-.034 25.2-14.183 25.2-14.183z" opacity=".5"/><path fill="#1490df" d="m71.233 38.983-.032.019-24.949 14.031q-.161.102-.335.188a3.5 3.5 0 0 1-3.405-.188l-24.95-14.031-.03-.019a1.51 1.51 0 0 1-.788-1.31v28.404a3.43 3.43 0 0 0 3.453 3.41h48.35A3.43 3.43 0 0 0 72 66.076V37.672c0 .544-.294 1.045-.767 1.311"/><path fill="#000" d="m46.616 52.826-.373.209q-.162.103-.335.19a3.5 3.5 0 0 1-1.316.347l9.492 11.226 16.558 3.99a3.4 3.4 0 0 0 1.05-1.311z" opacity=".1"/><path fill="#000" d="m48.307 51.875-2.064 1.16a3.5 3.5 0 0 1-1.651.537l4.447 12.263 21.608 2.948A3.39 3.39 0 0 0 72 66.077v-.366z" opacity=".05"/><path fill="#28a8ea" d="M20.244 69.486h48.298a3.47 3.47 0 0 0 2.068-.67L43.2 52.762a3 3 0 0 1-.335-.193l-25.284-14.43h-.011l-.826-.466V65.98a3.503 3.503 0 0 0 3.5 3.506"/><path fill="#000" d="M40.186 18.975V54.69a3.08 3.08 0 0 1-1.926 2.846c-.36.155-.747.235-1.138.235H16.744V17.58h3.349v-1.675h17.029a3.076 3.076 0 0 1 3.064 3.07" opacity=".1"/><path fill="#000" d="M38.512 20.649v35.715c.004.405-.082.805-.252 1.172a3.05 3.05 0 0 1-2.813 1.904H16.744V17.58h18.703c.486-.005.965.116 1.39.351a3.04 3.04 0 0 1 1.675 2.718" opacity=".2"/><path fill="#000" d="M38.512 20.649v32.366a3.09 3.09 0 0 1-3.065 3.076H16.744V17.58h18.703c.486-.005.965.116 1.39.351a3.04 3.04 0 0 1 1.675 2.718" opacity=".2"/><path fill="#000" d="M36.837 20.649v32.366a3.08 3.08 0 0 1-3.064 3.076H16.744V17.58h17.029a3.066 3.066 0 0 1 3.064 3.067z" opacity=".2"/><path fill="url(#paint1_linear_8803_4756)" d="M3.07 17.58h30.698a3.07 3.07 0 0 1 3.07 3.069v30.699a3.07 3.07 0 0 1-3.07 3.069H3.069A3.07 3.07 0 0 1 0 51.347V20.65a3.07 3.07 0 0 1 3.07-3.07"/><path fill="#fff" d="M9.593 30.453a8.93 8.93 0 0 1 3.506-3.873 10.6 10.6 0 0 1 5.57-1.397 9.87 9.87 0 0 1 5.157 1.325 8.85 8.85 0 0 1 3.41 3.7 11.94 11.94 0 0 1 1.196 5.442 12.6 12.6 0 0 1-1.23 5.693 9.06 9.06 0 0 1-3.517 3.83 10.26 10.26 0 0 1-5.348 1.359 10.1 10.1 0 0 1-5.27-1.34 9 9 0 0 1-3.456-3.707 11.66 11.66 0 0 1-1.209-5.376 12.95 12.95 0 0 1 1.19-5.657m3.737 9.092a5.8 5.8 0 0 0 1.973 2.548c.901.63 1.98.955 3.08.928a5.4 5.4 0 0 0 3.29-.958 5.55 5.55 0 0 0 1.915-2.549 9.9 9.9 0 0 0 .61-3.554 10.8 10.8 0 0 0-.575-3.6 5.7 5.7 0 0 0-1.855-2.656 5.1 5.1 0 0 0-3.26-1.005 5.3 5.3 0 0 0-3.153.936 5.84 5.84 0 0 0-2.01 2.57 10.2 10.2 0 0 0-.013 7.343z"/><path fill="#50d9ff" d="M53.581 12.556h15.07v15.07H53.58z"/></g><defs><linearGradient id="paint0_linear_8803_4756" x1="44.372" x2="44.372" y1="37.672" y2="69.486" gradientUnits="userSpaceOnUse"><stop stop-color="#35b8f1"/><stop offset="1" stop-color="#28a8ea"/></linearGradient><linearGradient id="paint1_linear_8803_4756" x1="6.399" x2="30.438" y1="15.181" y2="56.815" gradientUnits="userSpaceOnUse"><stop stop-color="#1784d9"/><stop offset=".5" stop-color="#107ad5"/><stop offset="1" stop-color="#0a63c9"/></linearGradient><clipPath id="clip0_8803_4756"><path fill="#fff" d="M0 0h72v72H0z"/></clipPath></defs></svg>
